X:1
T:Banchory's Lands
M:6/8
L:1/8
K:Bb
 D2- E| F2 F FDF| B2- c e2 d| c2 F F2 D| E3 D2- E| F2 FF-D F| B2- c e2 d|\
 c2 Bc-d c| B3 B2- c| d2 dB-c d| e2 d c2 B| B2 F F2 D| E3 D2 E| F2 FF-D F|\
 B2- c e2 d| c2 B cdc| B3||
